icons/svgs/location-plus-outline.svg

<svg width="24" height="24" viewBox="0 0 24 24" fill="none" xmlns="http://www.w3.org/2000/svg">
<path d="M17.625 9.511C17.625 6.42054 15.0859 3.87775 12 3.87775C8.875 3.87775 6.375 6.42054 6.375 9.511C6.375 10.0196 6.53125 10.7628 6.96094 11.78C7.35156 12.7188 7.9375 13.8142 8.60156 14.9095C9.73438 16.709 11.0234 18.4303 12 19.6822C12.9375 18.4303 14.2266 16.709 15.3594 14.9095C16.0234 13.8142 16.6094 12.7188 17 11.78C17.4297 10.7628 17.625 10.0196 17.625 9.511ZM19.5 9.511C19.5 12.9535 14.9297 19.0171 12.8984 21.5599C12.4297 22.1467 11.5312 22.1467 11.0625 21.5599C9.07031 19.0171 4.5 12.9535 4.5 9.511C4.5 5.3643 7.85938 2 12 2C16.1406 2 19.5 5.3643 19.5 9.511ZM11.0625 12.9535V10.4499H8.5625C8.01562 10.4499 7.625 10.0587 7.625 9.511C7.625 9.00244 8.01562 8.57213 8.5625 8.57213H11.0625V6.06846C11.0625 5.5599 11.4531 5.12958 12 5.12958C12.5078 5.12958 12.9375 5.5599 12.9375 6.06846V8.57213H15.4375C15.9453 8.57213 16.375 9.00244 16.375 9.511C16.375 10.0587 15.9453 10.4499 15.4375 10.4499H12.9375V12.9535C12.9375 13.5012 12.5078 13.8924 12 13.8924C11.4531 13.8924 11.0625 13.5012 11.0625 12.9535Z" fill="black"/>
</svg>

<svg xmlns="http://www.w3.org/2000/svg" width="24" height="24" fill="currentColor" class="icon-location-plus-outline" viewBox="0 0 24 24">
  <mask id="a" width="16" height="20" x="4" y="2" maskUnits="userSpaceOnUse" style="mask-type:alpha">
    <path d="M17.625 9.511c0-3.09-2.54-5.633-5.625-5.633-3.125 0-5.625 2.543-5.625 5.633 0 .509.156 1.252.586 2.269.39.939.976 2.034 1.64 3.13 1.133 1.799 2.422 3.52 3.399 4.772.938-1.252 2.227-2.973 3.36-4.772.663-1.096 1.25-2.191 1.64-3.13.43-1.017.625-1.76.625-2.269m1.875 0c0 3.443-4.57 9.506-6.602 12.049a1.177 1.177 0 0 1-1.835 0C9.07 19.017 4.5 12.954 4.5 9.51 4.5 5.364 7.86 2 12 2s7.5 3.364 7.5 7.511m-8.437 3.443V10.45h-2.5c-.547 0-.938-.391-.938-.939 0-.509.39-.939.938-.939h2.5V6.068c0-.508.39-.938.937-.938.508 0 .938.43.938.938v2.504h2.5c.507 0 .937.43.937.939 0 .548-.43.939-.937.939h-2.5v2.504c0 .547-.43.938-.938.938-.547 0-.937-.39-.937-.938"/>
  </mask>
  <g mask="url(#a)">
    <path d="M0 0h24v24H0z"/>
  </g>
</svg>
